X:1
T:Together
T:Together
T:Willa M. Meyers; har. by Andrew L. Byers
T:Joyce B. Meyers; v. 4-5 by Harlan D. Sorrell
T:PUBLIC DOMAIN
T:PUBLIC DOMAIN
C:Willa M. Meyers; har. by Andrew L. Byers
Z:Joyce B. Meyers; v. 4-5 by Harlan D. Sorrell
Z:PUBLIC DOMAIN
%%score ( 1 2 ) ( 3 4 )
L:1/8
Q:1/4=100
M:4/4
K:G
V:1 treble nm="Treble"
V:2 treble 
V:3 bass nm="Bass"
V:4 bass 
V:1
 D3/2 D/ | [B,G]3/2 [^A,F]/ [B,G]3/2 [B,A]/ [CF]2 [CD]3/2 [CD]/ | %2
w: 6.~There are|man- y souls in sin, Je- sus|
w: 2.~From the|loath- some plains of sin, Where our|
w: 3.~We’re the|tem- ple of the Lord, Built to-|
w: 4.~In this|tem- ple of our God We’re ad-|
w: 5.~Of the|church of God a- lone Je- sus|
 [CA]3/2 [B,^G]/ [CA]3/2 [DB]/ [B,=G]2 | [B,G]3/2 [DB]/ | %4
w: seeks to bring them in;|When us|
w: suf- f’ring souls had been|Held in|
w: geth- er on His word,|And our|
w: mit- ted through the blood|Which the|
w: is the “Cor- ner stone,”|And the|
 [Gd]3/2 [G^c]/ [Gd]3/2 [Ge]/ [Gd]/ [DG]3/2 [DF]3/2 [DG]/ | [FA]6 D>D | %6
w: work to- geth- er with the Lord to-|day; Then when|
w: bond- age un- der Sa- tan’s ty- rant|sway, To the|
w: Fa- ther in His tem- ple ev- er|dwells; We will|
w: Sav- ior shed to cleanse and make us|whole, Then we’re|
w: stan- dard is the plumb- line of His|word; With His|
 [B,G]3/2 [^A,F]/ [B,G]3/2 [B,A]/ [CF]2 | [CD]3/2 [CD]/ | %8
w: all the work is done,|And He|
w: mount of ho- li- ness,|High a-|
w: walk to- geth- er here,|In His|
w: “live- ly stones” in- deed,|Con- qu’rors|
w: Spir- it as our guide|Who has|
 [CA]3/2 [B,^G]/ [CA]3/2 [^C^A]/ [DB]2 [DB]3/2 [Dc]/ | %9
w: comes to claim His own, We’ll be|
w: bove un- right- eous- ness, Je- sus’|
w: love and god- ly fear, And our|
w: thro’ the ho- ly seed, And are|
w: come with us to ’bide— Sanc- ti-|
 [Gd]3/2 [G^c]/ [Gd]3/2 [Ge]/ [Gd]3/2 [DB]/ [CA]3/2 [B,G]/ | [CA]4 [B,G]3 ||"^Refrain" G | %12
w: caught up in the clouds with Him to-|geth- er.|To-|
w: love has gath- ered all of us to-|geth- er.||
w: voic- es shall ex- alt His name to-|geth- er.||
w: pil- lars in the church of God for-|ev- er.||
w: fied, the light, the truth we see to-|geth- er.||
 F4 A3 A | G4 B2 F3/2 G/ | A2 d3/2 B/ A3/2 F/ E3/2 D/ | [DA]3/2 [DA]/ [^CA]3/2 [CA]/ [DA]2 | %16
w: geth- er, to-|geth- er, We were|raised up to- geth- er from the|mir- y clay of sin,|
w: ||||
w: ||||
w: ||||
w: ||||
 F3/2 G/ | A2 B3/2 ^c/ d3/2 d/ [Ac]3/2 [GB]/ | [FA]3/2 [EG]/ [DF]3/2 [^CE]/ D2 D3/2 D/ | %19
w: And we|dwell now to- geth- er, eve- ry|heart to heart a- kin; We in|
w: |||
w: |||
w: |||
w: |||
 [B,G]3/2 [^A,F]/ [B,G]3/2 [B,A]/ [CF]2 | [CD]3/2 [CD]/ | %21
w: heav’n- ly plac- es sit,|For we’re|
w: ||
w: ||
w: ||
w: ||
 [CA]3/2 [B,^G]/ [CA]3/2 [^C^A]/ [DB]2 [DB]3/2 [Dc]/ | %22
w: framed and joined and knit, In the|
w: |
w: |
w: |
w: |
 [Gd]3/2 [G^c]/ [Gd]3/2 [Ge]/ [Gd]2 [DB]3/2 [B,G]/ | [CA]4 [B,G]2 |] %24
w: love of Christ our Sav- ior to-|geth- er.|
w: ||
w: ||
w: ||
w: ||
V:2
 D3/2 D/ | x8 | x6 | x2 | x8 | z6 D3/2 D/ | x6 | x2 | x8 | x8 | z4 z3 || D | D3/2 D/ D3/2 D/ D3 F | %13
 D3/2 D/ D3/2 D/ G2 F3/2 G/ | A2 d3/2 B/ A3/2 F/ E3/2 D/ | z4 z2 | F3/2 G/ | %17
 A2 B3/2 ^c/ d3/2 d/ z2 | z4 D2 D3/2 D/ | x6 | x2 | x8 | x8 | x6 |] %24
V:3
 D,3/2 D,/ | [G,,D,]3/2 [G,,D,]/ [G,,D,]3/2 [G,,D,]/ [A,,D,]2 [D,F,]3/2 [D,F,]/ | %2
 [D,F,]3/2 [D,F,]/ [D,F,]3/2 [D,F,]/ G,2 | G,3/2 G,/ | %4
 [G,B,]3/2 [G,^A,]/ [G,B,]3/2 [G,C]/ [G,B,]/ [B,D]3/2 [=A,C]3/2 [G,B,]/ | [D,D]6 D,>D, | %6
 [G,,D,]3/2 [G,,D,]/ [G,,D,]3/2 [G,,D,]/ [A,,D,]2 | [D,F,]3/2 [D,F,]/ | %8
 [D,F,]3/2 [D,F,]/ [D,F,]3/2 [D,F,]/ G,2 G,3/2 [G,A,]/ | %9
 [G,B,]3/2 [G,^A,]/ [G,B,]3/2 [G,C]/ [G,B,]3/2 G,/ [D,F,]3/2 [E,G,]/ | [D,F,]4 [G,,G,]3 || B, | %12
 A,4 C3 C | B,4 D2 F,3/2 G,/ | A,2 D3/2 B,/ A,3/2 F,/ E,3/2 D,/ | %15
 [F,A,]3/2 [F,A,]/ [E,G,]3/2 [E,G,]/ [D,F,]2 | F,3/2 G,/ | A,2 B,3/2 ^C/ D3/2 D/ [G,E]3/2 [G,D]/ | %18
 [A,^C]3/2 A,/ [A,,A,]3/2 [A,,G,]/ [D,F,]2 D,3/2 D,/ | %19
 [G,,D,]3/2 [G,,D,]/ [G,,D,]3/2 [G,,D,]/ [A,,D,]2 | [D,F,]3/2 [D,F,]/ | %21
 [D,F,]3/2 [D,F,]/ [D,F,]3/2 [D,F,]/ G,2 G,3/2 [G,A,]/ | %22
 [G,B,]3/2 [G,^A,]/ [G,B,]3/2 [G,C]/ [G,B,]2 G,3/2 G,/ | [D,F,]4 [G,,G,]2 |] %24
V:4
 D,3/2 D,/ | x8 | z4 G,2 | G,3/2 G,/ | x8 | z6 D,3/2 D,/ | x6 | x2 | z4 G,2 G,3/2 z/ | %9
w: |||||||||
 z4 z3/2 G,/ z2 | z4 z3 || D, | D,3/2 D,/ D,3/2 D,/ D,3 D, | G,3/2 G,/ G,3/2 G,/ G,2 F,3/2 G,/ | %14
w: ||To-|geth- er in the Lord, to-|geth- er in His word, * *|
 A,2 D3/2 B,/ A,3/2 F,/ E,3/2 D,/ | z4 z2 | F,3/2 G,/ | A,2 B,3/2 ^C/ D3/2 D/ z2 | %18
w: ||||
 z3/2 A,/ z2 z2 D,3/2 D,/ | x6 | x2 | z4 G,2 G,3/2 z/ | z4 z2 G,3/2 G,/ | x6 |] %24
w: ||||||

